src/assets/icon/currency_bitcoin.svg

<svg width="24" height="24" viewBox="0 0 24 24" fill="none" xmlns="http://www.w3.org/2000/svg">
<mask id="mask0_453_12458" style="mask-type:alpha" maskUnits="userSpaceOnUse" x="0" y="0" width="24" height="24">
<rect width="24" height="24" fill="#D9D9D9"/>
</mask>
<g mask="url(#mask0_453_12458)">
<path d="M9.4043 19.75V18.5H7.15405C6.94155 18.5 6.76346 18.4281 6.6198 18.2843C6.47613 18.1404 6.4043 17.9622 6.4043 17.7498C6.4043 17.5371 6.47613 17.359 6.6198 17.2155C6.76346 17.0718 6.94155 17 7.15405 17H8.4043V7H7.15405C6.94155 7 6.76346 6.92808 6.6198 6.78425C6.47613 6.64042 6.4043 6.46225 6.4043 6.24975C6.4043 6.03708 6.47613 5.859 6.6198 5.7155C6.76346 5.57183 6.94155 5.5 7.15405 5.5H9.4043V4.25C9.4043 4.0375 9.47613 3.85942 9.6198 3.71575C9.76363 3.57192 9.94188 3.5 10.1545 3.5C10.367 3.5 10.5451 3.57192 10.6888 3.71575C10.8323 3.85942 10.904 4.0375 10.904 4.25V5.5H13.0003V4.25C13.0003 4.0375 13.0722 3.85942 13.216 3.71575C13.3599 3.57192 13.538 3.5 13.7505 3.5C13.9632 3.5 14.1413 3.57192 14.2848 3.71575C14.4285 3.85942 14.5003 4.0375 14.5003 4.25V5.577C15.3733 5.7205 16.0915 6.11758 16.655 6.76825C17.2185 7.41892 17.5003 8.2045 17.5003 9.125C17.5003 9.634 17.4073 10.1045 17.2213 10.5365C17.0355 10.9687 16.7861 11.3405 16.4733 11.652C17.0951 11.9378 17.5884 12.3663 17.953 12.9375C18.3179 13.5087 18.5003 14.1545 18.5003 14.875C18.5003 15.898 18.1519 16.7579 17.455 17.4548C16.7582 18.1516 15.8983 18.5 14.8753 18.5H14.5003V19.75C14.5003 19.9625 14.4284 20.1406 14.2845 20.2843C14.1407 20.4281 13.9625 20.5 13.75 20.5C13.5374 20.5 13.3593 20.4281 13.2158 20.2843C13.0721 20.1406 13.0003 19.9625 13.0003 19.75V18.5H10.904V19.75C10.904 19.9625 10.8321 20.1406 10.6883 20.2843C10.5446 20.4281 10.3665 20.5 10.1538 20.5C9.9413 20.5 9.76321 20.4281 9.61955 20.2843C9.47605 20.1406 9.4043 19.9625 9.4043 19.75ZM9.90405 11.25H13.8753C14.4766 11.25 14.9811 11.0462 15.3888 10.6385C15.7965 10.2308 16.0003 9.72633 16.0003 9.125C16.0003 8.52367 15.7965 8.01917 15.3888 7.6115C14.9811 7.20383 14.4766 7 13.8753 7H9.90405V11.25ZM9.90405 17H14.8753C15.4766 17 15.9811 16.7962 16.3888 16.3885C16.7965 15.9808 17.0003 15.4763 17.0003 14.875C17.0003 14.2737 16.7965 13.7692 16.3888 13.3615C15.9811 12.9538 15.4766 12.75 14.8753 12.75H9.90405V17Z" fill="black"/>
</g>
</svg>

<svg xmlns="http://www.w3.org/2000/svg" width="24" height="24" fill="none" xmlns:v="https://vecta.io/nano"><mask id="A" maskUnits="userSpaceOnUse" x="0" y="0" width="24" height="24" mask-type="alpha"><path fill="#d9d9d9" d="M0 0h24v24H0z"/></mask><g mask="url(#A)"><path d="M9.404 19.75V18.5h-2.25c-.212 0-.391-.072-.534-.216s-.215-.322-.215-.535.072-.391.215-.534.322-.215.534-.215h1.25V7h-1.25c-.212 0-.391-.072-.534-.216s-.215-.322-.215-.535.072-.391.215-.534.322-.215.534-.215h2.25V4.25c0-.213.072-.391.216-.534s.322-.216.535-.216.391.072.534.216.215.322.215.534V5.5H13V4.25c0-.213.072-.391.216-.534s.322-.216.535-.216.391.072.534.216.215.322.215.534v1.327c.873.144 1.591.541 2.155 1.191s.845 1.436.845 2.357a3.53 3.53 0 0 1-.279 1.412c-.186.432-.435.804-.748 1.115.622.286 1.115.714 1.48 1.286s.547 1.217.547 1.938c0 1.023-.348 1.883-1.045 2.58s-1.557 1.045-2.58 1.045H14.5v1.25c0 .212-.072.391-.216.534s-.322.216-.534.216-.391-.072-.534-.216S13 19.963 13 19.75V18.5h-2.096v1.25c0 .212-.072.391-.216.534s-.322.216-.534.216-.391-.072-.534-.216-.215-.322-.215-.534zm.5-8.5h3.971c.601 0 1.106-.204 1.514-.611S16 9.726 16 9.125s-.204-1.106-.611-1.513S14.477 7 13.875 7H9.904v4.25zm0 5.75h4.971c.601 0 1.106-.204 1.514-.611s.611-.912.611-1.514-.204-1.106-.611-1.514-.912-.611-1.514-.611H9.904V17z" fill="#000"/></g></svg>
